X: 38749
T: Strings Attached
R: slide
M: 12/8
K: Dmajor
|:~a3 afe f2d ddc|Bcd gf e3 e ecB|
~A3 Ace a2g gfe|AB/c/d ea f2 ff fed|
~a3 afe f2d ddc|Bcd gf e3 e ecB|
~A3 Ace a2g gfe|1 AB/c/d ef d2z d de/f/g:|2 AB/c/d ef d3 d dc/B/A||
GAA ABA Bd c2 BA|B/c/dg fed ea f2 ed|
GAA ABA Bd c2 BA|B/c/dg fed edc dAG-|
GAA ABA Bd c2 BA|B/c/dg fed ea f2 ed|
BfB ga f2 ed cdg|[M:9/8] fed eaf fed||

